status/16/nm-signal-0-secure.svg

<?xml version="1.0" encoding="UTF-8" standalone="no"?>
<svg
   xmlns:dc="http://purl.org/dc/elements/1.1/"
   xmlns:cc="http://creativecommons.org/ns#"
   xmlns:rdf="http://www.w3.org/1999/02/22-rdf-syntax-ns#"
   xmlns:svg="http://www.w3.org/2000/svg"
   xmlns="http://www.w3.org/2000/svg"
   version="1.1"
   width="16"
   height="16"
   id="svg3773">
  <defs
     id="defs3775" />
  <metadata
     id="metadata3778">
    <rdf:RDF>
      <cc:Work
         rdf:about="">
        <dc:format>image/svg+xml</dc:format>
        <dc:type
           rdf:resource="http://purl.org/dc/dcmitype/StillImage" />
        <dc:title />
      </cc:Work>
    </rdf:RDF>
  </metadata>
  <g
     id="layer1"
     style="fill:#333333">
    <path
       d="M 8.0000001,3.035507 C 5.146578,3.035507 2.531679,4.131847 0.5,5.958284 L 1.7959168,7.4176466 C 3.6076327,5.829199 5.5135773,5.035506 8.0000001,5.035506 c 2.4864229,0 4.3343809,0.747499 6.2328599,2.4142856 L 15.5,5.958284 C 13.468321,4.131847 10.853421,3.035507 8.0000001,3.035507 z m 0,3.9999986 c -1.8478881,0 -3.5041268,0.736481 -4.8649358,1.861156 l 1.3245282,1.4137204 c 0.90637,-0.6491724 2.3168195,-1.2748764 3.4869316,-1.2748764 1.198417,0 2.6760269,0.639835 3.5952569,1.3180694 L 12.906417,8.8759206 C 11.545608,7.7512456 9.8478881,7.0355056 8.0000001,7.0355056 z m 0,4.0000004 c -0.883784,0 -1.7582786,0.463138 -2.1184756,0.860829 L 8.0000001,14.2 10.139037,11.916897 C 9.7788401,11.498644 8.8837841,11.035506 8.0000001,11.035506 z"
       id="path4112-19-69-3-0-8-8"
       style="opacity:0.4;color:#000000;fill:#333333;fill-opacity:1;fill-rule:nonzero;stroke:none;stroke-width:1;marker:none;visibility:visible;display:inline;overflow:visible;enable-background:accumulate" />
  </g>
  <path
     d="m 13.5,9.5968504 c -0.923333,0 -1.666667,0.7289696 -1.666667,1.6258006 l 0,0.77538 C 11.371667,11.998031 11,12.355007 11,12.798425 l 0,2.401181 C 11,15.643024 11.371667,16 11.833333,16 l 3.333334,0 C 15.628333,16 16,15.643024 16,15.199606 l 0,-2.401181 c 0,-0.443418 -0.371667,-0.800394 -0.833333,-0.800394 l 0,-0.77538 c 0,-0.896831 -0.743334,-1.6258006 -1.666667,-1.6258006 z m 0,0.8003936 c 0.461667,0 0.833333,0.354065 0.833333,0.800394 l 0,0.800393 -1.666666,0 0,-0.800393 c 0,-0.446329 0.371666,-0.800394 0.833333,-0.800394 z"
     id="rect2822"
     style="color:#000000;fill:#333333;fill-opacity:1;fill-rule:nonzero;stroke:none;stroke-width:1;marker:none;visibility:visible;display:inline;overflow:visible;enable-background:accumulate" />
</svg>

<svg xmlns="http://www.w3.org/2000/svg" viewBox="0 0 16 16"><path d="M8 3.036c-2.853 0-5.468 1.096-7.5 2.922l1.296 1.46C3.608 5.828 5.514 5.036 8 5.036c2.486 0 4.334.747 6.233 2.414L15.5 5.958C13.468 4.132 10.853 3.036 8 3.036zm0 4c-1.848 0-3.504.736-4.865 1.86L4.46 10.31c.906-.65 2.316-1.274 3.487-1.274 1.198 0 2.676.64 3.595 1.318l1.364-1.478C11.546 7.75 9.848 7.036 8 7.036zm0 4c-.884 0-1.758.463-2.118.86L8 14.2l2.14-2.283c-.36-.418-1.256-.88-2.14-.88z" opacity=".4" color="#000" overflow="visible" fill="#333"/><path d="M13.5 9.597c-.923 0-1.667.73-1.667 1.626v.775c-.46 0-.833.357-.833.8V15.2c0 .443.372.8.833.8h3.334c.46 0 .833-.357.833-.8v-2.402c0-.443-.372-.8-.833-.8v-.775c0-.897-.744-1.626-1.667-1.626zm0 .8c.462 0 .833.354.833.8v.8h-1.666v-.8c0-.446.37-.8.833-.8z" color="#000" fill="#333" overflow="visible"/></svg>
